!! Orlando di Lasso, "Sancti mei" 2-part polyphony, alla breve;
!! No. 4 from Laudate Pueri, 16th century, Tovey edition, p. 5
**kern	**kern
*M4/2	*M4/2
=1	=1
2.a	1r
4g	.
4f#	[1a
4e	.
[2d	.
=2	=2
2d]	1a]
4c#	.
4B	.
2A	1cc#
[2a	.
=3	=3
4a]	1b
8g#	.
8f#	.
2g#	.
4a	1a
4g#	.
4f#	.
4e	.
=4	=4
2d	1r
2.c#	.
.	2.ee
4d	.
2e	.
.	4dd
=5	=5
0A	4cc#
.	4b
.	1a
.	4g#
.	4f#
=6	=6
1c#	2e
.	2.a
1B	.
.	8g#
.	8f#
.	2g#
=7	=7
1A	4a
.	4b
.	4cc#
.	4dd
2r	1ee
[2a	.
=8	=8
4a]	1cc#
4g#	.
4f#	.
4e	.
2d	2r
2d	[2ff#
=9	=9
1d	4ff#]
.	4ee
.	4dd
.	4cc#
2.e	2b
.	2b
4f#	.
=10	=10
4g#	1b
4a	.
2.b	.
.	2.cc#
4a	.
4a	.
8g#	4dd
8f#	.
=11	=11
4g#	2ee
4a	.
2d	2.ff#
2a	.
.	4ee
2g#	[2ee
=12	=12
1f#	2ee]
.	2dd#
2r	1ee
2cc#	.
=13	=13
2.a	2r
.	2ee
4g#	.
4a	2.cc#
4e	.
4f#	.
4g#	4b
=14	=14
4a	4cc#
4b	4g#
2cc#	4a
.	4b
2f#	4cc#
.	4dd
[2cc#	2ee
=15	=15
4cc#]	2a
4b	.
4a	2.ee
4g#	.
2.a	.
.	4dd
.	4cc#
4g#	4b
=16	=16
2f#	4c#
.	4a
2B	2dd
2e	2b
4d	[2cc#
4c#	.
=17	=17
1d	4cc#]
.	8b
.	8a
.	2b
[1c#	1cc#
=18	=18
1c#]	2r
.	2ee
2r	1ee
2a	.
=19	=19
1a	2cc#
.	2f#
2f#	4dd
.	4cc#
2B	[2dd
=20	=20
4gn	2dd]
4f#	.
2g	1b
1e	.
.	[2ggn
=21	=21
1b	2gg]
.	2.ff#
2.a	.
.	8ee
.	8dd
.	8cc#
.	8dd
8g#	4ee
8a	.
=22	=22
4b	1dd
4f#	.
2b	.
2a	1cc#
[2f#	.
=23	=23
2f#]	1dd
1d	.
.	1b
[2gn	.
=24	=24
2g]	1ee
1e	.
.	2.cc#
[2f#	.
.	4b
=25	=25
4f#]	4a
4e	4g#
4d	2f#
4c#	.
4B	2.ff#
4c#	.
4d	.
4e	4ee
=26	=26
4f#	4dd#
4g#	4ee
2.a	2cc#
.	1b
8g#	.
8f#	.
2g#	.
=27	=27
1a	2r
.	1cc#
1f#	.
.	[2a
=28	=28
1d	2a]
.	1dd
1gn	.
.	[2b
=29	=29
1e	2b]
.	2.cc#
1f#	.
.	4b
.	4a
.	4g#
=30	=30
2.cc#	4f#
.	4g#
.	4a
4b	4b
4a#	4cc#
4b	4dd
4g#	[2ee
4an	.
=31	=31
1f#	4ee]
.	8dd#
.	8cc#
.	2dd#
2c#	1ee
[2cc#	.
=32	=32
2cc#]	1cc#
2a	.
2r	1a
[2f#	.
=33	=33
2f#]	1.dd
2d	.
1gn	.
.	[2b
=34	=34
1e	2b]
.	2.cc#
2.f#	.
.	4b
.	4a
4e	4g#
=35	=35
4d#	4f#
4e	4g#
4c#	2.a
4dn	.
1B	.
.	8g#
.	8f#
.	2g#
=36	=36
0A;	0a;
==	==
*-	*-
